!!!OTL: AUF DEN SCHNEE
!!!ARE: Europa, Mitteleuropa, Deutschland, Oberlausitz
!!!SCT: B0744
!!!YEM: Copyright 1995, estate of Helmut Schaffrath.
**kern
*ICvox
*Ivox
*M4/4
*k[b-]
*F:
=1
{4f
4f
8f
8g
4a
=2
4g
4g
8g
8a
4b-}
=3
{4.a
8b-
4cc
4b-
=4
4a
4g
4f
4r}
=5
{4.a
8b-
4cc
4cc
=6
8cc
8b-
8a
8b-
4b-
4a}
=7
{4.a
8b-
4cc
4cc
=8
8cc
8b-
8a
8b-
4b-
4a}
=9
{4a
4a
4g
4a
=10
4b-
4a
2g}
=11
{4f
4f
8f
8g
4a
=12
4g
4g
8g
8a
4b-}
=13
{4.a
8b-
4cc
4b-
=14
4a
4g
2f}
==
!!!AGN: Moral - Lied, Trost, religioes
!!!ONB: ESAC (Essen Associative Code) Database: BOEHME
!!!AMT: simple quadruple
!!!AIN: vox
!!!EED: Helmut Schaffrath
!!!EEV: 1.0
*-
